Numix-GalliumOS/16/categories/applications-graphics.svg

<?xml version="1.0" encoding="UTF-8" standalone="no"?>
<svg
   xmlns:dc="http://purl.org/dc/elements/1.1/"
   xmlns:cc="http://creativecommons.org/ns#"
   xmlns:rdf="http://www.w3.org/1999/02/22-rdf-syntax-ns#"
   xmlns:svg="http://www.w3.org/2000/svg"
   xmlns="http://www.w3.org/2000/svg"
   xmlns:sodipodi="http://sodipodi.sourceforge.net/DTD/sodipodi-0.dtd"
   xmlns:inkscape="http://www.inkscape.org/namespaces/inkscape"
   width="16"
   height="16"
   viewBox="0 0 16 16"
   id="svg2"
   version="1.1"
   inkscape:version="0.91 r"
   sodipodi:docname="applications-graphics.svg">
  <metadata
     id="metadata16">
    <rdf:RDF>
      <cc:Work
         rdf:about="">
        <dc:format>image/svg+xml</dc:format>
        <dc:type
           rdf:resource="http://purl.org/dc/dcmitype/StillImage" />
      </cc:Work>
    </rdf:RDF>
  </metadata>
  <defs
     id="defs14" />
  <sodipodi:namedview
     pagecolor="#ffffff"
     bordercolor="#666666"
     borderopacity="1"
     objecttolerance="10"
     gridtolerance="10"
     guidetolerance="10"
     inkscape:pageopacity="0"
     inkscape:pageshadow="2"
     inkscape:window-width="640"
     inkscape:window-height="480"
     id="namedview12" />
  <g
     style="fill:#4ea34d"
     id="g4">
    <path
       d="M 7.871094 5.441406 C 5.335938 5.550781 2.867188 6.789062 3.914062 9.292969 C 5.441406 8.71875 7.570312 9.578125 6.6875 10.003906 C 8.429688 11.4375 12.730469 9.121094 12.304688 7.148438 C 11.859375 5.949219 9.84375 5.351562 7.871094 5.441406 Z M 7.804688 6.148438 C 8.332031 6.148438 8.761719 6.289062 8.761719 6.464844 C 8.761719 6.636719 8.332031 6.777344 7.804688 6.777344 C 7.273438 6.777344 6.847656 6.636719 6.847656 6.464844 C 6.847656 6.289062 7.273438 6.148438 7.804688 6.148438 Z M 10.171875 6.671875 C 10.703125 6.671875 11.128906 6.8125 11.128906 6.984375 C 11.128906 7.160156 10.703125 7.300781 10.171875 7.300781 C 9.644531 7.300781 9.214844 7.160156 9.214844 6.984375 C 9.214844 6.8125 9.644531 6.671875 10.171875 6.671875 Z M 5.820312 7.148438 C 6.347656 7.148438 6.777344 7.289062 6.777344 7.464844 C 6.777344 7.640625 6.347656 7.78125 5.820312 7.78125 C 5.289062 7.78125 4.859375 7.640625 4.859375 7.464844 C 4.859375 7.289062 5.289062 7.148438 5.820312 7.148438 Z M 10.148438 7.976562 C 10.679688 7.976562 11.109375 8.117188 11.109375 8.292969 C 11.109375 8.46875 10.679688 8.609375 10.148438 8.609375 C 9.621094 8.609375 9.191406 8.46875 9.191406 8.292969 C 9.191406 8.117188 9.621094 7.976562 10.148438 7.976562 Z M 8.480469 9.175781 C 9.011719 9.175781 9.4375 9.316406 9.4375 9.492188 C 9.4375 9.664062 9.011719 9.804688 8.480469 9.804688 C 7.953125 9.804688 7.523438 9.664062 7.523438 9.492188 C 7.523438 9.316406 7.953125 9.175781 8.480469 9.175781 Z "
       id="path6" />
    <path
       d="M 11.488281 3.035156 L 6.785156 10.90625 C 6.417969 10.898438 6.074219 10.722656 5.828125 10.371094 L 10.867188 2.691406 C 11.207031 2.609375 11.414062 2.726562 11.488281 3.035156 Z "
       id="path8" />
    <path
       d="M 5.800781 12.273438 C 6.328125 12.203125 7.144531 11.53125 6.765625 10.554688 C 5.847656 10.292969 6.058594 10.160156 6.058594 10.160156 C 4.800781 10.464844 3.847656 11.898438 4.109375 12.8125 C 4.277344 13.390625 4.246094 13.332031 4.246094 13.332031 C 4.597656 12.210938 4.601562 12.417969 5.800781 12.273438 Z "
       id="path10" />
  </g>
</svg>

<svg xmlns="http://www.w3.org/2000/svg" viewBox="0 0 16 16">
 <g style="fill:#4ea34d">
  <path d="m 7.871 5.441 c -2.535 0.109 -5 1.348 -3.957 3.852 c 1.527 -0.574 3.656 0.285 2.773 0.711 c 1.742 1.434 6.04 -0.883 5.617 -2.855 c -0.445 -1.199 -2.461 -1.797 -4.434 -1.707 m -0.066 0.707 c 0.527 0 0.957 0.141 0.957 0.316 c 0 0.172 -0.43 0.313 -0.957 0.313 c -0.531 0 -0.957 -0.141 -0.957 -0.313 c 0 -0.176 0.426 -0.316 0.957 -0.316 m 2.367 0.523 c 0.531 0 0.957 0.141 0.957 0.313 c 0 0.176 -0.426 0.316 -0.957 0.316 c -0.527 0 -0.957 -0.141 -0.957 -0.316 c 0 -0.172 0.43 -0.313 0.957 -0.313 m -4.352 0.477 c 0.527 0 0.957 0.141 0.957 0.316 c 0 0.176 -0.43 0.316 -0.957 0.316 c -0.531 0 -0.961 -0.141 -0.961 -0.316 c 0 -0.176 0.43 -0.316 0.961 -0.316 m 4.328 0.828 c 0.531 0 0.961 0.141 0.961 0.316 c 0 0.176 -0.43 0.316 -0.961 0.316 c -0.527 0 -0.957 -0.141 -0.957 -0.316 c 0 -0.176 0.43 -0.316 0.957 -0.316 m -1.668 1.199 c 0.531 0 0.957 0.141 0.957 0.316 c 0 0.172 -0.426 0.313 -0.957 0.313 c -0.527 0 -0.957 -0.141 -0.957 -0.313 c 0 -0.176 0.43 -0.316 0.957 -0.316 Z"/>
  <path d="m 11.488 3.035 l -4.703 7.871 c -0.367 -0.008 -0.711 -0.184 -0.957 -0.535 l 5.04 -7.68 c 0.34 -0.082 0.547 0.035 0.621 0.344 Z"/>
  <path d="m 5.801 12.273 c 0.527 -0.07 1.344 -0.742 0.965 -1.719 c -0.918 -0.262 -0.707 -0.395 -0.707 -0.395 c -1.258 0.305 -2.211 1.738 -1.949 2.652 c 0.168 0.578 0.137 0.52 0.137 0.52 c 0.352 -1.121 0.355 -0.914 1.555 -1.059 Z"/>
 </g>
</svg>
